X: 27903
T: Mountain Lark, The
R: reel
M: 4/4
K: Edorian
E2 BA Bdef|deBd AFDF|E2 BA Bdef|dBAF BE E2|
E2 BA Bdef|deBd AFDF|E2 BA Bdef|gefd Be e2||
eB B2 efge|fdad bdad|eB B2 efge|fedf e3f|
eB B2 efge|fdad bdad|gafg egfe|dBAF BE E2||

